img/icon2.svg

<svg width="46" height="44" viewBox="0 0 46 44" fill="none" xmlns="http://www.w3.org/2000/svg">
<path d="M16.5643 13.3829L23 2.03971L29.4357 13.3829C29.7918 14.0106 30.4017 14.4537 31.1087 14.5985L43.8855 17.2139L35.0862 26.8398C34.5993 27.3725 34.3663 28.0895 34.4471 28.8066L35.9079 41.7663L24.034 36.3722C23.377 36.0737 22.623 36.0737 21.966 36.3722L10.0921 41.7663L11.5529 28.8066C11.6337 28.0895 11.4007 27.3725 10.9138 26.8398L2.11452 17.2139L14.8913 14.5985C15.5983 14.4537 16.2082 14.0106 16.5643 13.3829ZM36.7103 42.1307L36.7091 42.1302L36.7103 42.1307ZM9.2897 42.1307C9.28998 42.1306 9.29026 42.1305 9.29053 42.1304L9.2897 42.1307Z" stroke="url(#paint0_linear)" stroke-width="3"/>
<defs>
<linearGradient id="paint0_linear" x1="-4.08333" y1="23.5902" x2="50.2436" y2="23.5902" gradientUnits="userSpaceOnUse">
<stop stop-color="#5B40D7"/>
<stop offset="1" stop-color="#E85F62"/>
</linearGradient>
</defs>
</svg>

<svg width="46" height="44" fill="none" xmlns="http://www.w3.org/2000/svg"><path d="M16.564 13.383L23 2.04l6.436 11.343a2.5 2.5 0 001.673 1.216l12.776 2.615-8.799 9.626a2.5 2.5 0 00-.639 1.967l1.46 12.96-11.873-5.395a2.5 2.5 0 00-2.068 0l-11.874 5.394 1.46-12.96a2.5 2.5 0 00-.638-1.966l-8.8-9.626 12.777-2.615a2.5 2.5 0 001.673-1.216zM36.71 42.13h0zm-27.42 0s0 0 0 0h0z" stroke="url(#paint0_linear)" stroke-width="3"/><defs><linearGradient id="paint0_linear" x1="-4.083" y1="23.59" x2="50.244" y2="23.59" gradientUnits="userSpaceOnUse"><stop stop-color="#5B40D7"/><stop offset="1" stop-color="#E85F62"/></linearGradient></defs></svg>
